X:9180
%9340
T:Last Night's Fun
T:Scle/ip na hOiche Are/ir
S:Mary Bergin's recording on Feadoga Stain
D:Mary Bergin: _Feado/ga Sta/in_ (Shanachie 79006)
N:transcribed by Alan Ng
Z:id:ng-reels-12 transcribed by Alan Ng agng@students.wisc.edu August 25, 1996
E:10
M:C|
K:Cmaj
|:GC {F}DC ~G3 A|GC {F}DC DEFA|GC {F}DC {A}G2 (3GAB|1c2 {f}ed cAAc:|2c2 {f}ed cAAG|*
|:ce ~e2 ge ~e2|cdec ~d3 e|1ce ~e2 ge ~e2|c2 ed cAGA:|2 ~g3 a gedf|edcA ABcA|]**
\bigskip


